X: 1
T: Sherman's March
P: piffero primo a0831
O: cfd bk1
%R: march
F: http://ancients.sudburymuster.org/mus/sng/pdf/shermansmchC0.pdf
Z: 2020 John Chambers <jc:trillian.mit.edu>
M: 2/4
L: 1/8
K: G
D |\
DG GB | Bd2d | dA A>B | A3 D |\
DF FA | Ac2e | ed d>c | B3 G |\
GB Bd | dg2g |
ge e>d | e3 e |\
ed dB | dc cD | DB B>A | G2 z :: D |\
B2 B>B | B3 B | cB AG | A3 D |\
A2 A>A |
A3 A | BA GF | G3 D |\
DG GB | dg2g | ge e>d | e3 e |\
e>d dB | dc cD | DB B>A | G2 z :|
